X:15
T:Reel 15
M: 4/4
L:1/8
K: D Major
FE|D2AFDBAF|A2AFA2dB|A2FAABdB|AFEDEFEF|D2AFDFAF|A2ABd2dB|ABdABAFA|GFEFDA:||:d2|fdadfddc|BABde2ef|gefdedBd|faafe2de|fadfafdB|ABdef2ec|d2BABdAF|EDEFD2:|.abc